black/svg/1F363.svg

<svg id="emoji" xmlns="http://www.w3.org/2000/svg" viewBox="0 0 72 72">
  
  
  
  
  
  <g id="line">
    <path fill="none" stroke="#000000" stroke-width="2" stroke-linecap="round" stroke-linejoin="round" stroke-miterlimit="10" d="
		M6,46c0,0.415,0.126,0.7998,0.3428,1.1191C5.5635,47.3926,5,48.127,5,49c0,1.1045,0.8955,2,2,2
		c0.1006,0,0.1963-0.0156,0.2939-0.0293C7.1113,51.2715,7,51.6221,7,52c0,1.1045,0.8955,2,2,2c0.415,0,0.7998-0.127,1.1201-0.3428
		C10.3926,54.4375,11.127,55,12,55s1.6074-0.5625,1.8799-1.3428C14.2002,53.873,14.585,54,15,54s0.7998-0.127,1.1201-0.3428
		C16.3926,54.4375,17.127,55,18,55s1.6074-0.5625,1.8799-1.3428C20.2002,53.873,20.585,54,21,54s0.7998-0.127,1.1201-0.3428
		C22.3926,54.4375,23.127,55,24,55s1.6074-0.5625,1.8799-1.3428C26.2002,53.873,26.585,54,27,54s0.7998-0.127,1.1201-0.3428
		C28.3926,54.4375,29.127,55,30,55s1.6074-0.5625,1.8799-1.3428C32.2002,53.873,32.585,54,33,54s0.7998-0.127,1.1201-0.3428
		C34.3926,54.4375,35.127,55,36,55s1.6074-0.5625,1.8799-1.3428C38.2002,53.873,38.585,54,39,54s0.7998-0.127,1.1201-0.3428
		C40.3926,54.4375,41.127,55,42,55s1.6074-0.5625,1.8799-1.3428C44.2002,53.873,44.585,54,45,54s0.7998-0.127,1.1201-0.3428
		C46.3926,54.4375,47.127,55,48,55s1.6074-0.5625,1.8799-1.3428C50.2002,53.873,50.585,54,51,54s0.7998-0.127,1.1201-0.3428
		C52.3926,54.4375,53.127,55,54,55s1.6074-0.5625,1.8799-1.3428C56.2002,53.873,56.585,54,57,54s0.7998-0.127,1.1201-0.3428
		C58.3926,54.4375,59.127,55,60,55s1.6074-0.5625,1.8799-1.3428C62.2002,53.873,62.585,54,63,54c1.1045,0,2-0.8955,2-2
		c0-0.3779-0.1113-0.7285-0.2939-1.0293C64.8037,50.9844,64.8994,51,65,51c1.1045,0,2-0.8955,2-2
		c0-0.873-0.5635-1.6074-1.3428-1.8809C65.874,46.7998,66,46.415,66,46"></path>
    <path fill="none" stroke="#000000" stroke-width="2" stroke-linecap="round" stroke-linejoin="round" stroke-miterlimit="10" d="
		M7,42c0,0,16-4,29-4s29,4,29,4v-6C48.9834,18.665,23.0176,18.668,7,36V42z"></path>
  </g>
</svg>

<?xml version="1.0" encoding="utf-8"?>
<!-- Generator: Adobe Illustrator 21.1.0, SVG Export Plug-In . SVG Version: 6.00 Build 0)  -->
<svg version="1.1" id="Ebene_3" xmlns="http://www.w3.org/2000/svg" xmlns:xlink="http://www.w3.org/1999/xlink" x="0px" y="0px"
	 viewBox="0 0 72 72" enable-background="new 0 0 72 72" xml:space="preserve">
<g>
	<path fill="none" stroke="#1D1D1B" stroke-width="2" stroke-linecap="round" stroke-linejoin="round" stroke-miterlimit="10" d="
		M6,46c0,0.4,0.1,0.8,0.3,1.1C5.6,47.4,5,48.1,5,49c0,1.1,0.9,2,2,2c0.1,0,0.2,0,0.3,0C7.1,51.3,7,51.6,7,52c0,1.1,0.9,2,2,2
		c0.4,0,0.8-0.1,1.1-0.3c0.3,0.8,1,1.3,1.9,1.3s1.6-0.6,1.9-1.3c0.3,0.2,0.7,0.3,1.1,0.3s0.8-0.1,1.1-0.3c0.3,0.8,1,1.3,1.9,1.3
		s1.6-0.6,1.9-1.3c0.3,0.2,0.7,0.3,1.1,0.3s0.8-0.1,1.1-0.3c0.3,0.8,1,1.3,1.9,1.3s1.6-0.6,1.9-1.3c0.3,0.2,0.7,0.3,1.1,0.3
		s0.8-0.1,1.1-0.3c0.3,0.8,1,1.3,1.9,1.3s1.6-0.6,1.9-1.3c0.3,0.2,0.7,0.3,1.1,0.3s0.8-0.1,1.1-0.3c0.3,0.8,1,1.3,1.9,1.3
		s1.6-0.6,1.9-1.3c0.3,0.2,0.7,0.3,1.1,0.3s0.8-0.1,1.1-0.3c0.3,0.8,1,1.3,1.9,1.3s1.6-0.6,1.9-1.3c0.3,0.2,0.7,0.3,1.1,0.3
		s0.8-0.1,1.1-0.3c0.3,0.8,1,1.3,1.9,1.3s1.6-0.6,1.9-1.3c0.3,0.2,0.7,0.3,1.1,0.3s0.8-0.1,1.1-0.3c0.3,0.8,1,1.3,1.9,1.3
		s1.6-0.6,1.9-1.3c0.3,0.2,0.7,0.3,1.1,0.3s0.8-0.1,1.1-0.3c0.3,0.8,1,1.3,1.9,1.3s1.6-0.6,1.9-1.3c0.3,0.2,0.7,0.3,1.1,0.3
		c1.1,0,2-0.9,2-2c0-0.4-0.1-0.7-0.3-1c0.1,0,0.2,0,0.3,0c1.1,0,2-0.9,2-2c0-0.9-0.6-1.6-1.3-1.9c0.2-0.3,0.3-0.7,0.3-1.1"/>
	<path fill="none" stroke="#1D1D1B" stroke-width="2" stroke-linecap="round" stroke-linejoin="round" stroke-miterlimit="10" d="
		M7,42c0,0,16-4,29-4s29,4,29,4v-6C49,18.7,23,18.7,7,36V42z"/>
</g>
</svg>
